X: 10282
Q: "Lively."
M: 2/4
L: 1/16
K: D
d2c2d2e2 | f2e2d2c2 | B2A2G2F2 | {F}E4 z2FG |\
d2c2d2e2 | g2f2e2d2 | f2e2d2c2 | d4 z2A2 |
{A}G2G2 GFGA | F4 z2A2 | G2G2 gedc | d6 d2 |\
f2e2d2c2 | B2A2G2F2 | G2G2 E2E2 | F4 z2d2 |\
f2e2d2c2 | B2A2G2F2 | G2G2 E2E2 | D4 z2 |]


